X: 106
T:Over The Hills And Far Away. HA.105
M:C
L:1/8
Q:180
S:Henry Atkinson's original MS,Hartburn,N'umberland,1694.
O:England
A:Hartburn,Northumberland
N:cf Pills To Purge Melancholy,1719.also Walsh CD, 1719.CGP
H:1/8
Z:vmp.Chris Partington.Jan.2004
K:C
GA|c3d cded|c2A2-A2GA|c3d cdec|f2d2-d2GA|!
c3d cded|c2A2A2c2|G3A GABc|e2d2-d2||!
ef|g3a gede|c2A2-A2ef|g3a gedc|a2d2-d2ef|!
gfga gede|c2A2A2c2|G3A GAcd|e2d2-d2|]
